**kern	**kern
*staff1	*staff1
=1-	=1-
*clefG2	*clefG2
*k[]	*k[]
*B-:	*B-:
*M4/4	*M4/4
8b-/L	1G:min
8g/J	.
[4dd\	.
8dd\L]	.
16cc\L	.
16b-\JJ	.
16cc\LL	.
16dd\	.
16b-\	.
16g\JJ	.
=2	=2
8dd\	1C:min
16r	.
16b-\LK	.
8cc\	.
[8cc\J	.
2cc\]	.
=3	=3
1r	.
=4	=4
1r	.
=5	=5
1r	.
=6	=6
1r	.
=7	=7
8r	1B-:dom
8B-/	.
12d/L	.
12f/	.
12g/J	.
12b-/L	.
12B-/	.
[12d/J	.
8d/L]	.
8B-/J	.
=8||	=8||
12b-\L	1E-:dom
12b-\	.
12b-\J	.
16f/LK	.
[8.e-/J	.
4e-/]	.
4r	.
=9	=9
8r	1B-:dom
8B-/	.
12d/L	.
12f/	.
12g/J	.
12b-/L	.
12B-/	.
[12d/J	.
4d/]	.
=10	=10
8r	2B-:dom
8b-\L	.
8ff\	.
16ff\L	.
16ff\JJ	.
16dd/LK	4F:min
[8.a-/J	.
4a-/]	4B-:dom
=11	=11
4r	1E-:dom
48cc\LLL	.
48dd-\	.
48cc\JJJ	.
16b-/LL	.
16a-/	.
16f/JJ	.
8e-/L	.
8B-/J	.
48cc\LLL	.
48dd-\	.
48cc\JJJ	.
16b-/LL	.
16a-/	.
16f/JJ	.
=12	=12
24cc\LL	1E-:dom
24dd-\	.
24cc\JJ	.
8b-\	.
16a-/LL	.
16f/	.
16e-/	.
16B-/JJ	.
24cc\LL	.
24dd-\	.
24cc\JJ	.
8b-\	.
16a-/LL	.
16f/	.
16e-/	.
16B-/JJ	.
=13	=13
16d/LL	1B-:maj
16f/	.
16f/	.
16g/JJ	.
12d/L	.
12B-/	.
12d/J	.
4r	.
8r	.
16A/LL	.
16B-/JJ	.
=14	=14
32c/LLL	2B-:dom
32B-/	.
32A/	.
32B-/JJJ	.
32d/LLL	.
32e-/	.
32en/	.
32f/JJJ	.
4r	.
32a-/LLL4D-:min	.
32g/	.
32f/	.
32e/JJJ	.
32d/LLL	.
32c/	.
32Bn/	.
32c/JJJ	.
32f/LLL	4G-:dom
32a-/	.
32g/	.
32f/JJ	.
[8e/J	.
=15	=15
4e/]	1C:min
4r	.
8r	.
24c/LL	.
24e-/	.
24g/JJ	.
20b-\LL	.
20dd\	.
20dd-\	.
20cc\	.
20bn\JJ	.
=16	=16
48b-\LLL2C:min	.
48cc\	.
48b-\JJJ	.
48a/LLL	.
48b-/	.
48a/JJJ	.
8f/	.
4g/	.
8.r	2F:dom
16e-/	.
48f/LLL	.
48g/	.
48f/JJJ	.
16d/	.
48e-/LLL	.
48f/	.
48e-/JJJ	.
16c/	.
=17	=17
48d/LLL	1B-:dom
48e-/	.
48d/JJJ	.
16B-/	.
48c/LLL	.
48d/	.
48c/JJJ	.
16A/	.
16B-/LK	.
8.F/J	.
4r	.
16r	.
16e-/	.
24g-/LL	.
24a-/	.
24g-/JJ	.
=18	=18
16f/LL	2C:min
16e-/	.
16d/	.
[16B-/JJ	.
4B-/]	.
4r	2F:dom
8r	.
16f/	.
48g\LLL	.
48b-\	.
48dd\JJJ	.
=19	=19
4ff\	1B-:dom
8r	.
16ee-\LL	.
16dd\JJ	.
8ee-\L	.
[8ff\J	.
4ff\]	.
=20||	=20||
8r	1E-:dom
24b-\LL	.
24b-\	.
24b-\JJ	.
16r	.
16ee\LL	.
16ee-\	.
32dd-\L	.
32b-\JJJ	.
16a-/LL	.
16f/	.
16e-/	.
16B-/JJ	.
24d-/LL	.
24dn/	.
24B-/	.
24F/	.
24E-/	.
24F/JJ	.
=21	=21
24D/LL	1B-:dom
24F/	.
24B-/	.
24c/	.
24A/	.
24B-/JJ	.
4F/	.
2r	.
=22	=22
8r	2F:min
16f/LL	.
16a-/JJ	.
16cc\LL	.
16ee-\	.
16dd\	.
16b-\JJ	.
16cc/LL	2B-:dom
16a-/	.
16f/	.
16g/JJ	.
16b-/LL	.
16g/JJ	.
24a-/LL	.
24b-/	.
24a-/JJ	.
=23	=23
16g/LL	1E-:dom
16f/	.
16e-/	.
16c/J	.
8f/	.
16e-/L	.
16B-/JJ	.
16c/	.
48d-/LLL	.
48c/	.
48d-/JJJ	.
16c/LL	.
16B-/J	.
8d-/J	.
8r	.
=24	=24
8r	1E-:dom
8c/	.
48B-/LLL	.
48c/	.
48B-/JJJ	.
16G/LK	.
8d-/J	.
8r	.
8c/	.
16B-/LL	.
16Bn/	.
16c/	.
16A/JJ	.
=25	=25
4B-/	2B-:dom
4r	.
16r	2B-:o7
16f/LL	.
16e-/	.
16B-/J	.
8d/	.
16B-/L	.
16G/JJ	.
=26	=26
16c/LL	2D:min
16A/JJ	.
48B-/LLL	.
48d/	.
48f/JJJ	.
32a-\LLL	.
32dd-\JJ	.
8ff\	.
16cc\L	.
16f\JJ	.
8b\L	2G:dom
[8ff\J	.
16ff\LL]	.
16ee-\	.
16g\	.
[16ddn\JJ	.
=27	=27
4.dd\]	1C:min
8r	.
4r	.
8r	.
16cc\LL	.
16b\JJ	.
=28	=28
16dd\LL	2C:min
16dd-\	.
16cc\	.
16b\JJ	.
48b-\LLL	.
48cc\	.
48b-\JJJ	.
16a/LL	.
16g/	.
16g-/JJ	.
16f/LL	2F:dom
16e-/JJ	.
24B-/LL	.
24G/	.
24E-/JJ	.
8d/L	.
16A/L	.
16c/JJ	.
=29	=29
16B-/LL	2B-:dom
16F/JJ	.
32A/LLL	.
32c/	.
32e-/	.
32g/JJJ	.
16b-/LL	.
16g-/	.
16d/	.
16B-/JJ	.
8f/	4E-:dom
24e-/LL	.
24B-/	.
24G/JJ	.
4G-/	4E:o7
=30	=30
8.r	2B-:dom
16F/	.
12e/L	.
12f/	.
12d/J	.
8e-/L	2F:dom
16B-/L	.
16G/JJ	.
16c/LL	.
16d/	.
16e-/	.
16f/JJ	.
=31	=31
16d/LK	1B-:dom
[8.B-/J	.
4B-/]	.
2r	.
=32||	=32||
1r	.
=33	=33
1r	.
=34	=34
1r	.
=35	=35
1r	.
=36	=36
1r	.
=37	=37
1r	.
=38	=38
1r	.
=39	=39
1r	.
=40	=40
1r	.
=41	=41
1r	.
=42	=42
2r	.
4r	.
12r	.
12b-\L	.
12b-\J	.
=43	=43
[4b-\	1B-:dom
8b-/L]	.
16f/L	.
16e-/JJ	.
8d/L	.
8B-/J	.
8r	.
24b-\LL	.
24b-\	.
24b-\JJ	.
=44||	=44||
24dd-\LL2E-:dom	.
24cc\	.
24b-\JJ	.
16g/LL	.
[16e-/JJ2E:o7	.
2e-/]	.
4cc\	.
=45	=45
16r	1B-:dom
16b-/LL	.
16a-/	.
16f/JJ	.
16e-/LL	.
16B-/J	.
[8d/J	.
24d/LL]	.
24B-/	.
24G/JJ	.
16c/LL	.
16A/JJ	.
16B-/LL	.
16c/	.
16d/	.
16e-/JJ	.
=46	=46
16f/LL	2F:min
16g/	.
16a-/	.
16b-/JJ	.
16cc\LL	.
16dd\	.
16gg\	.
16cc\JJ	.
16gg-\	2B-:dom
24ff\LL	.
24cc\	.
24b-\JJ	.
[16a-/LK	.
8a-/J]	.
8r	.
=47	=47
16r	1E-:dom
16ff\LL	.
16ee-\	.
16b-\JJ	.
16dd-\LK	.
8e-\	.
[16cc\Jk	.
16cc\LK]	.
8e-\	.
16dd-\Jk	.
16e-/LL	.
16e-/	.
16cc/	.
16e-/JJ	.
=48	=48
8e-/L	2E-:dom
8dd-/J	.
4r	.
8r	2E:o7
48cc#\LLL	.
48ddn\	.
48cc#\JJJ	.
16b-\	.
16a-/LL	.
16f/	.
16e-/	.
16B-/JJ	.
=49	=49
16d/LL	2B-:dom
16f/	.
16f/	.
16g/J	.
8d/	.
16B-/L	.
16G/JJ	.
8c/L	2C:min
16B-/L	.
16G/JJ	.
16c/LL	.
16d/	.
16e-/	.
16f/JJ	.
=50	=50
16d/LL	2D:min
16f/	.
16f/	.
16g/J	.
8a/	.
16f/L	.
16d/JJ	.
8A/L	.
16d/L	.
16A/J	4D:min
8A-/	4D-:min
16e/L	.
16d/JJ	.
=51	=51
4e-/	1C:min
4r	.
8r	.
32c/LLL	.
32e-/	.
32g/	.
32b-/JJJ	.
16dd\LL	.
16dd-\	.
16cc\	.
16bn\JJ	.
=52	=52
48b-\LLL2C:min	.
48cc\	.
48b-\JJJ	.
16a/LL	.
16g/	.
16g-/JJ	.
16f/LL	.
16e-/JJ	.
24B-/LL	.
24G/	.
24E-/JJ	.
16d/LL	2F:dom
16c/	.
16d/	.
[16c/J	.
8c/]	.
16F/L	.
16A/JJ	.
=53	=53
16B-/LL	2B-:dom
16c/	.
16d/	.
16e-/JJ	.
4f/	.
16r	4E-:maj
16d/LL	.
16e-/	.
16f/JJ	.
24g-/LL	4E:o7
24a-/	.
24g-/JJ	.
16f/LL	.
16e-/JJ	.
=54	=54
12d/L	1B-:dom
12B-/	.
12B-/J	.
2c/	.
4r	.
=55	=55
8b-/L	1G:min
8g/J	.
[4dd\	.
8dd\L]	.
16cc\L	.
16b-\JJ	.
16cc\LL	.
16dd\	.
16b-\	.
16g\JJ	.
=56||	=56||
8dd\	1C:min
16r	.
16b-\LK	.
8cc\	.
[8cc\J	.
2cc\]	.
=57	=57
1r	.
=58	=58
1r	.
==	==
*-	*-
